/* XPM */
static const char *bar_xpm[] = {
"5 50 3 1",
"  c None",
". c #a3b3cc",
"o c #8c9ab1",
" ... ",
".....",
"..o..",
".....",
".....",
".. ..",
".. ..",
".. ..",
".. ..",
".. ..",
".. ..",
".. ..",
".. ..",
".. ..",
".. ..",
".....",
"..o..",
".....",
".. ..",
".. ..",
".. ..",
".. ..",
".. ..",
".. ..",
".....",
"..o..",
".....",
".. ..",
".. ..",
".. ..",
".. ..",
".. ..",
".. ..",
".....",
"..o..",
".....",
".. ..",
".. ..",
".. ..",
".. ..",
".. ..",
".. ..",
".. ..",
".. ..",
".. ..",
".....",
".....",
"..o..",
".....",
" ... "
};
