/* XPM */
static const char *bucket_xpm[] = {
"30 15 3 1",
"  c None",
". c #c3d100",
"o c #818a00",
"                              ",
"                              ",
"                              ",
"                              ",
"                              ",
"                              ",
"                              ",
"..                          ..",
"..                          ..",
"...                        ...",
" ..                        .. ",
" ...                      ... ",
"  ..........................  ",
"   ............o...........   ",
"              ...             "
};
